X: 46
T: Sweeney's
B: begged borrowed and stolen
M:2/4
L:1/8
R: polka
Q: 1/4=100
K:Gmajor
V:1 
|:"G"de/d/ Bd|Gd Bd|"C"e/f/g/e/ "G"dB|"Em"AG E2|
 "G"de/d/ Bd|Gd Bd|"C"e/f/g/e/ "Em"dB|1 "G"AG G2:|2 "G"AG G>A||
 |:"G"Bd g>e|dB AG|Bd g>e|"D"dB AA|
"G" Bd g>e|dB AG|d/d/d/d/ B>A|1 "D"AG "G"G>A:|2 "D"AG "G"G2||
% abcbook-tune_id 62828a3adf5c5347ea1a127a


% abcbook-boost 0
% abcbook-tablature 
% abcbook-transpose 
% abcbook-lastupdated 1652725431076
% abcbook-soundfonts 
% abcbook-repeats 3
% abc-sessionorg_id 1549
% abc-sessionorg_setting 0
% abc-sessionorg_setting_id 1549
% abc-boost 0

